X:248
T:Moving Bog
Z: id:dc-reel-228
M:C
L:1/8
K:D Major
A,|D2FA d2Bc|defg ecAc|d2cd BGED|CEAG FDEF|!
D2FA d2Bc|defg ecAc|d2cd BGED|CEAG FDD:|!
A|defd gefd|gabg ecAc|defd gefd|gabg e3A|!
defd gefd|gabg ecAc|d2cd BGED|CEAG FDD:|!

